svgs/duotone/high-definition.svg

<svg xmlns="http://www.w3.org/2000/svg" viewBox="0 0 576 512"><!--! Font Awesome Pro 6.6.0 by @fontawesome - https://fontawesome.com License - https://fontawesome.com/license (Commercial License) Copyright 2024 Fonticons, Inc. --><path class="fa-secondary" style="fill:var(--fa-secondary-color,inherit);opacity:var(--fa-secondary-opacity,.4);" d="M0 96L0 416c0 35.3 28.7 64 64 64l448 0c35.3 0 64-28.7 64-64l0-320c0-35.3-28.7-64-64-64L64 32C28.7 32 0 60.7 0 96zm112 88c0-13.3 10.7-24 24-24s24 10.7 24 24l0 48 64 0 0-48c0-13.3 10.7-24 24-24s24 10.7 24 24l0 72 0 72c0 13.3-10.7 24-24 24s-24-10.7-24-24l0-48-64 0 0 48c0 13.3-10.7 24-24 24s-24-10.7-24-24l0-72 0-72zm192 0c0-13.3 10.7-24 24-24l56 0c53 0 96 43 96 96s-43 96-96 96l-56 0c-13.3 0-24-10.7-24-24l0-144zm48 24l0 96 32 0c26.5 0 48-21.5 48-48s-21.5-48-48-48l-32 0z"/><path class="fa-primary" style="fill:var(--fa-primary-color,inherit);opacity:var(--fa-primary-opacity,1);" d="M160 184c0-13.3-10.7-24-24-24s-24 10.7-24 24l0 72 0 72c0 13.3 10.7 24 24 24s24-10.7 24-24l0-48 64 0 0 48c0 13.3 10.7 24 24 24s24-10.7 24-24l0-72 0-72c0-13.3-10.7-24-24-24s-24 10.7-24 24l0 48-64 0 0-48zm168-24c-13.3 0-24 10.7-24 24l0 144c0 13.3 10.7 24 24 24l56 0c53 0 96-43 96-96s-43-96-96-96l-56 0zm56 144l-32 0 0-96 32 0c26.5 0 48 21.5 48 48s-21.5 48-48 48z"/></svg>

<svg xmlns="http://www.w3.org/2000/svg" viewBox="0 0 576 512"><!--! Font Awesome Pro 6.4.2 by @fontawesome - https://fontawesome.com License - https://fontawesome.com/license (Commercial License) Copyright 2023 Fonticons, Inc. --><path class="fa-primary" style="fill:var(--fa-primary-color,inherit);opacity:var(--fa-primary-opacity,1);" d="M160 184c0-13.3-10.7-24-24-24s-24 10.7-24 24v72 72c0 13.3 10.7 24 24 24s24-10.7 24-24V280h64v48c0 13.3 10.7 24 24 24s24-10.7 24-24V256 184c0-13.3-10.7-24-24-24s-24 10.7-24 24v48H160V184zm168-24c-13.3 0-24 10.7-24 24V328c0 13.3 10.7 24 24 24h56c53 0 96-43 96-96s-43-96-96-96H328zm56 144H352V208h32c26.5 0 48 21.5 48 48s-21.5 48-48 48z"/><path class="fa-secondary" style="fill:var(--fa-secondary-color,inherit);opacity:var(--fa-secondary-opacity,.4);" d="M64 32C28.7 32 0 60.7 0 96V416c0 35.3 28.7 64 64 64H512c35.3 0 64-28.7 64-64V96c0-35.3-28.7-64-64-64H64zm72 128c13.3 0 24 10.7 24 24v48h64V184c0-13.3 10.7-24 24-24s24 10.7 24 24v72 72c0 13.3-10.7 24-24 24s-24-10.7-24-24V280H160v48c0 13.3-10.7 24-24 24s-24-10.7-24-24V256 184c0-13.3 10.7-24 24-24zm168 24c0-13.3 10.7-24 24-24h56c53 0 96 43 96 96s-43 96-96 96H328c-13.3 0-24-10.7-24-24V184zm48 120h32c26.5 0 48-21.5 48-48s-21.5-48-48-48H352v96z"/></svg>
